X:1
T:James Gibb editions
T:Occhi miei lassi - Arcadelt
T:#
%%score [ 1 2 3 4 ]
L:1/8
Q:1/4=104
M:2/2
K:A
V:1 treble nm="Soprano" snm="S"
V:2 treble nm="Alto" snm="A"
V:3 treble-8 nm="Tenor" snm="T"
V:4 bass nm="Bass" snm="B"
V:1
"^Occhi miei lassi""^Jacques Arcadelt\n(1505-68)""^Francesco Petrarca\n(1304-74)" z4 A4 | %1
w: Oc-|
 A2 A2 B4 | c4 z2 A2- | A2 G4 F2- | F2 E2 F4 |[M:2/2] F8- | F4 z4 | z4 z2 F2- | F2 c4 A2 | %9
w: chi miei las-|si, men\-|* tre ch´io|* vi gi-|ro||Nel|* bel vi-|
 B2 c2 d4 | c2 B4 A2- | A2 G2 A4 | z2 G3 G G2 | A2 G2 F4 | E4 z2 G2 | A2 B2 c2 c2 | %16
w: so di quel-|la che v´ha|* mor- ti,|Pre- go- vi,|siat´ ac- cor-|ti, Che|già vi sfid´ A-|
[M:2/2] d4 c2 B2- | B2 A4 G2 | z2 A2 A2 G2 | (F4 E4) | E8 || z4 E4 | F6 F2 | F2 F2 A4- | %24
w: mor', ond' io|* sos- pir',|ond' io sos-|pi\- *|ro.|Mor-|te può|chiu- der so\-|
 A2 G2 z2 E2 | F2 G2 A4 | G4 z2 G2 | A2 G2 A2 A2 | G2 B2 A2 G2 | F4 E2 G2 | A4 F4 | G4 E4 | F6 F2 | %33
w: * la ai|miei pen- sie-|ri L´a-|mo- ro- so ca-|min che vi con-|du- ce Al|dol- ce|por- to|de la|
 E2 D2 E4 | E4 z4 | z2 e2 e2 e2 | c2 c2 A2 A2 | B2 c2 d4 | c4 z2 c2 | B2 A2 G2 G2 ||[M:3/2] x12 | %41
w: lor sa- lu-|te:|Ma poss' a|voi ce- lar la|vo- stra lu-|ce. Per|men' og- get- to,||
[M:3/2] z2 G4 G2 A2 B2 | c4 B4 z2 B2 ||[M:2/2] B2 B2 B2 B2 | c4 B2 A2- | A2 G2 F4 ||[M:3/2] x12 | %47
w: per- chè men' in-|te- ri Sie-|te for- mat' e|di mi- nor|* vir- tu-||
[M:3/2] E8 z2 E2 ||[M:2/2] F6 F2 | A4 G4 ||[M:3/2] G4 z2 E2 F2 G2 ||[M:2/2] A4 G4 | %52
w: te: Pe-|rò, do-|len- ti~~an-|zi che sian ve-|nu- te|
[M:2/2] z2 G2 G2 G2 | A8 | G4 G4 | A2 F4 (E2- | E2 D2) E4 | E4 z2 c2 | d2 c2 B2 A2 | GG z G ABcB | %60
w: L´ho- re del|pian-|to, che|son già vi\-|* * ci-|ne, Pren-|det' ho- ra la|fi- ne, Bre- ve con- for- to~~a|
 G2 A2 F2 F2 ||[M:3/2] E4 E4 z2 c2 ||[M:2/2] d2 c2 B2 A2 |[M:2/2] GG z G ABcB | G2 A2 F2 F2 || %65
w: si lun- go mar-|ti- ro, Pren-|det' ho- ra la|fi- ne, Bre- ve con- for- to~~a|si lun- go mar-|
[M:3/2] E4 E8 |] %66
w: ti- ro.|
V:2
 E4 E2 E2 | F4 G4 | z2 A4 F2- | F2 E4 A,2 | B,4 C4 |[M:2/2] z2 D4 C2- | C2 B,2 C2 D2 | %7
w: Oc- chi miei|las- si,|men- tre|* ch´io vi|gi- ro|Nel bel|* vi- so di|
 (D2 CB,) A,2 C2 | D2 E2 F4- | F2 E2 D2 B,2 | z2 E3 E C2 | F2 E4 ^D2 | E2 E3 E E2 | E2 E2 C4 | %14
w: quel\- * * la, di|quel- la che|* v´ha mor- ti,|Pre- go- vi,|siat´ ac- cor-|ti, Pre- go- vi,|siat´ ac- cor-|
 C4 z2 C2 | E2 F2 G2 G2 |[M:2/2] A4 G4 | F2 F2 E2 E2 | z2 E2 E2 E2 | (C2 D2 B,4) | C8 || B,4 C4 | %22
w: ti, Che|già vi sfid´ A-|mor', ond´|io sos- pi- ro,|ond' io sos-|pi\- * *|ro.|Mor- te,|
 z2 D2 D2 D2 | A,6 A,2 | B,4 C2 (A,B, | CD) E4 ^D2 | E4 z2 B,2 | D2 B,2 F2 F2 | E2 G2 F2 E2- | %29
w: mor- te può|chiu- der|so- l´ai miei *|* * pen- sie-|ri L´a-|mo- ro- so ca-|min che vi con\-|
 E2 ^D2 E4 | z2 C2 D4 | B,4 C4 | D2 A,2 (D3 C) | B,2 A,2 B,4 | C2 E2 E2 E2 | C2 C2 A,2 A,2 | %36
w: * du- ce|Al dol-|ce por-|to de la *|lor sa- lu-|te: Ma poss' a|voi ce- lar la|
 A3 G (F3 E | FG A4 G2) | A4 z2 A2 | G2 F2 E2 E2 ||[M:3/2] x12 |[M:3/2] z2 E4 E2 F2 G2 | %42
w: vo- stra lu\- *||ce. Per|men' og- get- to,||per- chè men' in-|
 A4 G2 G2 F2 G2 ||[M:2/2] F2 G2 F2 G2 | A4 G2 (F2- | F2 E4 ^D2) ||[M:3/2] x12 | %47
w: te- ri Sie- te for-|mat' e di mi-|nor vir- tu\-|||
[M:3/2] E2 B,2 B,4 z2 C2 ||[M:2/2] D6 D2 | C4 E4 ||[M:3/2] E2 E2 (E3 D C2) B,2 ||[M:2/2] A,4 B,4 | %52
w: te: Pe- rò, pe-|rò do-|len- ti~~an-|zi che sian * * ve-|nu- te|
[M:2/2] z2 E2 E2 E2 | F8 | E4 B,4 | C2 A,4 G,2 | (A,4 B,4) | C4 z2 A2 | A2 A2 =G2 E2 | %59
w: L´ho- re del|pian-|to, che|son già vi-|ci\- *|ne, Pren-|det' ho- ra la|
 EE z B AGFF | E2 E2 D2 D2 ||[M:3/2] B,4 C4 z2 A2 ||[M:2/2] A2 A2 =G2 E2 |[M:2/2] EE z B AGFF | %64
w: fi- ne, Bre- ve con- for- to~~a|si lun- go mar-|ti- ro, Pren-|det' ho- ra la|fi- ne, Bre- ve con- for- to~~a|
 E2 E2 D2 D2 ||[M:3/2] B,4 C8 |] %66
w: si lun- go mar-|ti- ro.|
V:3
 c4 c2 c2 | A4 e4 | z2 c4 d2- | d2 B3 c (d2- | d2 cB) A4 |[M:2/2][K:treble-8] z2 B4 A2- | %6
w: Oc- chi miei|las- si,|men- tre|* ch´io vi gi\-|* * * ro|Nel bel|
 A2 F2 G2 A2 | B4 c2 A2 | B2 A3 B c2 | (BA A4 G2) | A2 G3 G A2 | B2 B2 A4 | B2 B3 B B2 | c2 B2 A4 | %14
w: * vi- so di|quel- la, di|quel- la che v´ha|mor\- * * *|ti, Pre- go- vi,|siat´ ac- cor-|ti, Pre- go- vi,|siat´ ac- cor-|
 G4 z2 e2 | c2 d2 e2 e2 |[M:2/2][K:treble-8] f4 e4 | c2 d2 B2 B2- | B2 c2 c2 (B2- | BA) (A4 G2) | %20
w: ti, Che|già vi sfid´ A-|mor', ond'|io sos- pi- ro,|* ond' io sos\-|* * pi\- *|
 A8 || E4 A4- | A2 A2 B2 A2 | d4 c4 | z2 e2 (e3 d | c2) B4 A2 | B4 z2 e2 | f2 e2 c2 d2 | %28
w: ro.|Mor- te|* può chiu- der|so- la|ai miei *|* pen- sie-|ri L´a-|mo- ro- so ca-|
 B3 c d2 e2 | B2 B4 c2- | c2 A4 B2- | B2 E4 (A2- | AGFE) (FGAF) | G2 A4 G2 | A4 z2 e2 | %35
w: min che vi con-|du- c´~Al dol\-|* ce por\-|* to de|* * * * la * * *|lor sa- lu-|te: Ma|
 e2 e2 c2 c2 | A2 A2 d4- | d2 c2 B4 | A4 A4 | e2 f2 c2 c2 ||[M:3/2] x12 | %41
w: poss' a voi ce-|lar la vo\-|* stra lu-|ce. Per|men' og- get- to,||
[M:3/2][K:treble-8] z2 c4 c2 f2 e2 | (ABcd) e2 e2 d2 e2 ||[M:2/2] B2 e2 d2 e2 | (ABcd e2) f2 | %45
w: per- chè men' in-|te\- * * * ri Sie- te for-|mat' e di mi-|nor * * * * vir-|
 (d2 e2 B4) ||[M:3/2] x12 |[M:3/2][K:treble-8] E2 G2 G4 z2 A2 ||[M:2/2] A6 A2 | A2 A2 c2 c2 || %50
w: tu\- * *||te: Pe- rò, pe-|rò do-|len- ti~~an- zi che|
[M:3/2] B2 B2 (c2 A B c d e2- ||[M:2/2] e2 ^d2 e4) |[M:2/2][K:treble-8] z2 B2 B2 B2 | d8 | %54
w: sian ve- nu\- * * * * *|* * te|L´ho- re del|pian-|
 B4 z2 e2 | e2 d3 c (B2- | BA A4 G2) | A4 z2 e2 | f3 e d2 c2 | BB z e ceed | B2 c2 B2 A2- || %61
w: to, che|son già vi- ci\-||ne, Pren-|det' ho- ra la|fi- ne, Bre- ve con- for- to~~a|si lun- go mar\-|
[M:3/2] A2 G2 A4 z2 e2 ||[M:2/2] f3 e d2 c2 |[M:2/2][K:treble-8] BB z e ceed | B2 c2 B2 A2- || %65
w: * ti- ro, Pren-|det' ho- ra la|fi- ne, Bre- ve con- for- to~~a|si lun- go mar\-|
[M:3/2] A2 G2 A8 |] %66
w: * ti- ro.|
V:4
 A,4 A,2 A,2 | F,4 E,4 | z2 F,4 D,2- | D,2 E,4 F,2 | =G,4 F,4 |[M:2/2] z2 B,,4 F,2- | %6
w: Oc- chi miei|las- si,|men- tre|* ch´io vi|gi- ro|Nel bel|
 F,2 D,2 E,2 F,2 | =G,4 F,4 | z4 (F,3 E, | D,2) C,2 B,,4 | A,,2 E,3 E, F,2 | D,2 E,2 F,4 | %12
w: * vi- so di|quel- la|che *|* v´ha mor-|ti, Pre- go- vi,|siat´ ac- cor-|
 E,2 E,3 E, E,2 | A,2 E,2 F,4 | C,8 | z8 |[M:2/2] z4 z2 E,2 | F,2 D,2 E,2 E,2 | z2 A,2 A,2 E,2 | %19
w: ti, Pre- go- vi,|siat´ ac- cor-|ti,||ond'|io sos- pi- ro,|ond' io sos-|
 (F,2 D,2 E,4) | A,,8 || z4 A,,4 | D,6 D,2 | D,2 D,2 F,4 | E,4 A,4- | A,2 G,2 F,4 | E,4 z2 E,2 | %27
w: pi\- * *|ro.|Mor-|te può|chiu- der so-|l´ai miei|* pen- sie-|ri L´a-|
 D,2 E,2 F,2 D,2 | E,4 z4 | z4 E,4 | F,4 D,4 | E,4 A,,4 | D,6 D,2 | E,2 F,2 E,4 | A,,8- | A,,8 | %36
w: mo- ro- so ca-|min|Al|dol- ce|por- to|de la|lor sa- lu-|te:||
 z8 | z8 | z8 | z8 ||[M:3/2] x12 |[M:3/2] z12 | z12 ||[M:2/2] z8 | z8 | z8 ||[M:3/2] x12 | %47
w: |||||||||||
[M:3/2] z2 E,2 E,4 z2 A,,2 ||[M:2/2] D,6 D,2 | F,4 E,4 ||[M:3/2] E,2 E,2 A,6 G,2 || %51
w: Pe- rò, pe-|rò do-|len- ti~~an-|zi che sian ve-|
[M:2/2] F,4 E,4 |[M:2/2] z2 E,2 E,2 E,2 | D,8 | E,4 E,4 | A,,2 D,4 E,2 | (F,4 E,4) | A,,4 z2 A,2 | %58
w: nu- te|L´ho- re del|pian-|to, che|son già vi-|ci\- *|ne, Pren-|
 D,2 F,2 =G,2 A,2 | E,E, z E, F,G,A,B, | E,2 A,2 D,2 D,2 ||[M:3/2] E,4 A,,4 z2 A,2 || %62
w: det' ho- ra la|fi- ne, Bre- ve con- for- to~~a|si lun- go mar-|ti- ro, Pren-|
[M:2/2] D,2 F,2 =G,2 A,2 |[M:2/2] E,E, z E, F,G,A,B, | E,2 A,2 D,2 D,2 ||[M:3/2] E,4 A,,8 |] %66
w: det' ho- ra la|fi- ne, Bre- ve con- for- to~~a|si lun- go mar-|ti- ro.|

